X: 14806
T: Gaorsach Lasses, The
R: reel
M: 4/4
K: Bminor
F2B,C D3E-|EFED EFAd|B2AB FD (3DDD|EFED =FEDE|
B,DED =F3^F-|FAFE EFAd|B2AB FD (3DDD|EFED B,4:|
|:E3E- E2DE|FB,2A, B,CDE|F3F- F2EF|A2BF- FE2D|
E3E- E2DE|FB,2A, B,CDE|F2BA EFED|EFED B,4:|

